icons/unverified-16.svg

<svg xmlns="http://www.w3.org/2000/svg" width="16" height="16" viewBox="0 0 16 16"><path d="M6.415.52a2.677 2.677 0 013.17 0l.928.68c.153.113.33.186.518.215l1.138.175a2.678 2.678 0 012.241 2.24l.175 1.138c.029.187.102.365.215.518l.68.928a2.677 2.677 0 010 3.17l-.68.928a1.186 1.186 0 00-.215.518l-.175 1.138a2.678 2.678 0 01-2.241 2.241l-1.138.175a1.186 1.186 0 00-.518.215l-.928.68a2.677 2.677 0 01-3.17 0l-.928-.68a1.186 1.186 0 00-.518-.215L3.83 14.41a2.678 2.678 0 01-2.24-2.24l-.175-1.138a1.186 1.186 0 00-.215-.518l-.68-.928a2.677 2.677 0 010-3.17l.68-.928a1.17 1.17 0 00.215-.518l.175-1.14a2.678 2.678 0 012.24-2.24l1.138-.175c.187-.029.365-.102.518-.215l.928-.68zm2.282 1.209a1.18 1.18 0 00-1.394 0l-.928.68a2.67 2.67 0 01-1.18.489l-1.136.174a1.18 1.18 0 00-.987.987l-.174 1.137a2.67 2.67 0 01-.489 1.18l-.68.927c-.305.415-.305.98 0 1.394l.68.928c.256.348.423.752.489 1.18l.174 1.136c.078.51.478.909.987.987l1.137.174c.427.066.831.233 1.18.489l.927.68c.415.305.98.305 1.394 0l.928-.68a2.67 2.67 0 011.18-.489l1.136-.174c.51-.078.909-.478.987-.987l.174-1.137c.066-.427.233-.831.489-1.18l.68-.927c.305-.415.305-.98 0-1.394l-.68-.928a2.67 2.67 0 01-.489-1.18l-.174-1.136a1.18 1.18 0 00-.987-.987l-1.137-.174a2.67 2.67 0 01-1.18-.489zM6.92 6.085h.001a.75.75 0 01-1.342-.67c.169-.339.436-.701.849-.977C6.846 4.16 7.369 4 8 4a2.76 2.76 0 011.638.525c.502.377.862.965.862 1.725 0 .448-.115.83-.329 1.15-.205.307-.47.513-.692.662-.109.072-.22.138-.313.195l-.006.004a6.24 6.24 0 00-.26.16.952.952 0 00-.276.245.75.75 0 01-1.248-.832c.184-.264.42-.489.692-.661.109-.073.22-.139.313-.195l.007-.004c.1-.061.182-.11.258-.161a.969.969 0 00.277-.245C8.96 6.514 9 6.427 9 6.25a.612.612 0 00-.262-.525A1.27 1.27 0 008 5.5c-.369 0-.595.09-.74.187a1.01 1.01 0 00-.34.398zM9 11a1 1 0 11-2 0 1 1 0 012 0z"/></svg>

<svg xmlns="http://www.w3.org/2000/svg" width="16" height="16" viewBox="0 0 16 16">
  <defs/>
  <path d="M6.415,0.52 C7.358,-0.173 8.642,-0.173 9.585,0.52 L10.513,1.2 C10.666,1.313 10.843,1.386 11.031,1.415 L12.169,1.59 C13.325,1.767 14.232,2.674 14.41,3.83 L14.585,4.968 C14.614,5.155 14.687,5.333 14.8,5.486 L15.48,6.414 C16.173,7.357 16.173,8.641 15.48,9.584 L14.8,10.512 C14.688,10.665 14.614,10.843 14.585,11.03 L14.41,12.168 C14.233,13.324 13.325,14.232 12.169,14.409 L11.031,14.584 C10.844,14.613 10.666,14.687 10.513,14.799 L9.585,15.479 C8.642,16.172 7.358,16.172 6.415,15.479 L5.487,14.799 C5.334,14.687 5.156,14.613 4.969,14.584 L3.83,14.41 C2.674,14.232 1.768,13.326 1.59,12.17 L1.415,11.032 C1.386,10.845 1.312,10.667 1.2,10.514 L0.52,9.586 C-0.173,8.643 -0.173,7.359 0.52,6.416 L1.2,5.488 C1.313,5.335 1.386,5.158 1.415,4.97 L1.59,3.83 C1.768,2.674 2.674,1.768 3.83,1.59 L4.968,1.415 C5.155,1.386 5.333,1.313 5.486,1.2 L6.414,0.52 Z M8.697,1.729 C8.282,1.425 7.718,1.425 7.303,1.729 L6.375,2.409 C6.027,2.665 5.622,2.833 5.195,2.898 L4.059,3.072 C3.55,3.15 3.15,3.55 3.072,4.059 L2.898,5.196 C2.833,5.623 2.665,6.028 2.409,6.376 L1.729,7.303 C1.424,7.718 1.424,8.283 1.729,8.697 L2.409,9.625 C2.665,9.973 2.832,10.377 2.898,10.805 L3.072,11.941 C3.15,12.451 3.55,12.85 4.059,12.928 L5.196,13.102 C5.623,13.168 6.027,13.335 6.376,13.591 L7.303,14.271 C7.718,14.576 8.283,14.576 8.697,14.271 L9.625,13.591 C9.973,13.335 10.378,13.167 10.805,13.102 L11.941,12.928 C12.451,12.85 12.85,12.45 12.928,11.941 L13.102,10.804 C13.168,10.377 13.335,9.973 13.591,9.624 L14.271,8.697 C14.576,8.282 14.576,7.717 14.271,7.303 L13.591,6.375 C13.335,6.027 13.167,5.622 13.102,5.195 L12.928,4.059 C12.85,3.55 12.45,3.15 11.941,3.072 L10.804,2.898 C10.377,2.833 9.972,2.665 9.624,2.409 Z M6.92,6.085 L6.921,6.085 C6.734,6.452 6.286,6.6 5.918,6.416 C5.549,6.232 5.398,5.785 5.579,5.415 C5.748,5.076 6.015,4.714 6.428,4.438 C6.846,4.16 7.369,4 8,4 C8.588,3.996 9.162,4.18 9.638,4.525 C10.14,4.902 10.5,5.49 10.5,6.25 C10.5,6.698 10.385,7.08 10.171,7.4 C9.966,7.707 9.701,7.913 9.479,8.062 C9.37,8.134 9.259,8.2 9.166,8.257 L9.16,8.261 C9.072,8.312 8.985,8.366 8.9,8.421 C8.793,8.484 8.699,8.567 8.624,8.666 C8.392,9.005 7.931,9.095 7.589,8.867 C7.247,8.639 7.152,8.178 7.376,7.834 C7.56,7.57 7.796,7.345 8.068,7.173 C8.177,7.1 8.288,7.034 8.381,6.978 L8.388,6.974 C8.488,6.913 8.57,6.864 8.646,6.813 C8.753,6.75 8.847,6.667 8.923,6.568 C8.96,6.514 9,6.427 9,6.25 C9.008,6.042 8.909,5.844 8.738,5.725 C8.553,5.587 8.28,5.5 8,5.5 C7.631,5.5 7.405,5.59 7.26,5.687 C7.11,5.786 7.001,5.925 6.92,6.085 Z M9,11 C9,11.552 8.552,12 8,12 C7.448,12 7,11.552 7,11 C7,10.448 7.448,10 8,10 C8.552,10 9,10.448 9,11 Z"/>
</svg>
